Yaru++/apps/scalable/gitlab.svg

<svg height="256" width="256" xmlns="http://www.w3.org/2000/svg" xmlns:xlink="http://www.w3.org/1999/xlink">
  <filter id="filter847" color-interpolation-filters="sRGB" height="1.025" width="1.023" x="-.01" y="-.01">
    <feGaussianBlur stdDeviation="1.095"/>
  </filter>
  <filter id="filter873" color-interpolation-filters="sRGB" height="1.1" width="1.092" x="-.05" y="-.05">
    <feGaussianBlur stdDeviation="4.38"/>
  </filter>
  <g fill-rule="evenodd" transform="translate(15.728814 -52.135593)">
    <g fill="#060505">
      <path d="m40.872271 74.10986c-1.741342.00013-3.483752 1.00034-4.134012 3.00217l-25.2828 77.81892-12.75829 39.2657c-1.16362 3.58104.11153 7.50215 3.15804 9.71531l110.416021 80.22363 110.41603-80.22363c3.04654-2.21316 4.32164-6.13427 3.15803-9.71531l-12.75829-39.2657-25.2828-77.81892c-1.3005-4.00367-6.96381-4.00475-8.26431 0l-25.28653 77.81892h-83.96426l-25.286522-77.81892c-.650261-2.00238-2.388944-3.0023-4.130307-3.00217z" filter="url(#filter873)" opacity=".1"/>
      <path d="m40.872271 74.10986c-1.741342.00013-3.483752 1.00034-4.134012 3.00217l-25.2828 77.81892-12.75829 39.2657c-1.16362 3.58104.11153 7.50215 3.15804 9.71531l110.416021 80.22363 110.41603-80.22363c3.04654-2.21316 4.32164-6.13427 3.15803-9.71531l-12.75829-39.2657-25.2828-77.81892c-1.3005-4.00367-6.96381-4.00475-8.26431 0l-25.28653 77.81892h-83.96426l-25.286522-77.81892c-.650261-2.00238-2.388944-3.0023-4.130307-3.00217z" filter="url(#filter847)" opacity=".1"/>
      <path d="m40.872271 74.10986c-1.741342.00013-3.483752 1.00034-4.134012 3.00217l-25.2828 77.81892-12.75829 39.2657c-1.16362 3.58104.11153 7.50215 3.15804 9.71531l110.416021 80.22363 110.41603-80.22363c3.04654-2.21316 4.32164-6.13427 3.15803-9.71531l-12.75829-39.2657-25.2828-77.81892c-1.3005-4.00367-6.96381-4.00475-8.26431 0l-25.28653 77.81892h-83.96426l-25.286522-77.81892c-.650261-2.00238-2.388944-3.0023-4.130307-3.00217z" opacity=".1"/>
    </g>
    <path d="m112.27112 282.1355 41.24464-126.93721h-82.489273z" fill="#f22c42"/>
    <path d="m112.27112 282.13527-41.244633-126.93721h-57.803338z" fill="#fb7c38"/>
    <path d="m13.223256 155.19838-12.53350231 38.57506c-1.14319329 3.51818.1088826 7.37258 3.10188841 9.54689l108.4795879 78.81526z" fill="#ffda64"/>
    <path d="m13.223256 155.19849h57.803337l-24.841782-76.453081c-1.277688-3.934467-6.843153-3.933403-8.120839 0z" fill="#f22c42"/>
    <path d="m112.27112 282.13527 41.24464-126.93721h57.80334z" fill="#fb7c38"/>
    <path d="m211.3191 155.19838 12.53351 38.57506c1.14318 3.51818-.10883 7.37258-3.1019 9.54689l-108.47959 78.81526z" fill="#ffda64"/>
    <path d="m211.3191 155.19849h-57.80334l24.84178-76.453081c1.27769-3.934467 6.84316-3.933403 8.12084 0z" fill="#f22c42"/>
    <path d="m.33557 195.41262c-.35689 3.02383.92233 6.06631 3.45508 7.90625l108.48047 78.8164 108.47852-78.8164c2.53278-1.83994 3.81197-4.88242 3.45507-7.90625-.27427 2.31276-1.48392 4.47431-3.45507 5.90625l-108.47852 78.8164-108.48047-78.8164c-1.97113-1.43194-3.18079-3.59349-3.45508-5.90625z" opacity=".2"/>
    <path d="m42.126203 75.7942c-1.71079.00013-3.42365.98446-4.0625 2.95117l-24.83789 76.45312-12.5351604 38.57617c-.39042 1.20153-.49588 2.44131-.35351 3.64063.0649-.54956.1777-1.09956.35351-1.64063l12.5351604-38.57617 24.83789-76.45312c.63885-1.96671 2.35171-2.95104 4.0625-2.95117 1.71082-.00013 3.41779.98392 4.05664 2.95117l24.84375 76.45312h82.490237l24.84375-76.45312c1.27769-3.93449 6.84145-3.93342 8.11914 0l24.83985 76.45312 12.5332 38.57617c.17539.53977.28855 1.08849.35352 1.63672.14166-1.19812.0365-2.43648-.35352-3.63672l-12.5332-38.57617-24.83985-76.45312c-1.27769-3.93342-6.84145-3.93449-8.11914 0l-24.84375 76.45312h-82.490237l-24.84375-76.45312c-.63885-1.96725-2.34582-2.9513-4.05664-2.95117z" fill="#e9e9e9" opacity=".3"/>
  </g>
</svg>

<svg xmlns="http://www.w3.org/2000/svg" xmlns:xlink="http://www.w3.org/1999/xlink" width="256" height="256" version="1.0">
 <defs>
  <linearGradient id="a">
   <stop id="stop2" offset="0" stop-color="#68676b"/>
   <stop id="stop4" offset=".8" stop-color="#424048"/>
   <stop id="stop6" offset="1" stop-color="#241f31"/>
  </linearGradient>
  <radialGradient id="d" cx="279.422" cy="446.483" r="224" fx="279.422" fy="446.483" gradientTransform="matrix(1.34416,6e-4,-6.2e-4,1.38763,-121.22,-718.103)" gradientUnits="userSpaceOnUse" xlink:href="#a"/>
  <linearGradient id="e" x1="43.844" x2="-60" y1="234" y2="234" gradientTransform="matrix(1.0015,0,0,0.99993,72.09,56.015)" gradientUnits="userSpaceOnUse" xlink:href="#b"/>
  <linearGradient id="b">
   <stop id="stop11" offset="0" stop-color="#d5d3cf"/>
   <stop id="stop13" offset=".038" stop-color="#e3e2df"/>
   <stop id="stop15" offset=".077" stop-color="#c0bfbc"/>
   <stop id="stop17" offset=".923" stop-color="#c0bfbc"/>
   <stop id="stop19" offset=".962" stop-color="#e3e2df"/>
   <stop id="stop21" offset="1" stop-color="#d5d3cf"/>
  </linearGradient>
  <filter style="color-interpolation-filters:sRGB" id="filter847" width="1.023" height="1.025" x="-.01" y="-.01">
   <feGaussianBlur id="feGaussianBlur849" stdDeviation="1.095"/>
  </filter>
  <filter style="color-interpolation-filters:sRGB" id="filter873" width="1.092" height="1.1" x="-.05" y="-.05">
   <feGaussianBlur id="feGaussianBlur875" stdDeviation="4.38"/>
  </filter>
 </defs>
 <g transform="translate(15.728814,-52.135593)">
  <path d="m 40.872271,74.10986 c -1.741342,1.3e-4 -3.483752,1.00034 -4.134012,3.00217 l -25.2828,77.81892 -12.75829,39.2657 c -1.16362,3.58104 0.11153,7.50215 3.15804,9.71531 l 110.416021,80.22363 110.41603,-80.22363 c 3.04654,-2.21316 4.32164,-6.13427 3.15803,-9.71531 L 213.087,154.93095 187.8042,77.11203 c -1.3005,-4.00367 -6.96381,-4.00475 -8.26431,0 l -25.28653,77.81892 H 70.2891 L 45.002578,77.11203 c -0.650261,-2.00238 -2.388944,-3.0023 -4.130307,-3.00217 z" style="opacity:0.1;fill:#060505;fill-rule:evenodd;filter:url(#filter873)"/>
  <path style="opacity:0.1;fill:#060505;fill-rule:evenodd;filter:url(#filter847)" d="m 40.872271,74.10986 c -1.741342,1.3e-4 -3.483752,1.00034 -4.134012,3.00217 l -25.2828,77.81892 -12.75829,39.2657 c -1.16362,3.58104 0.11153,7.50215 3.15804,9.71531 l 110.416021,80.22363 110.41603,-80.22363 c 3.04654,-2.21316 4.32164,-6.13427 3.15803,-9.71531 L 213.087,154.93095 187.8042,77.11203 c -1.3005,-4.00367 -6.96381,-4.00475 -8.26431,0 l -25.28653,77.81892 H 70.2891 L 45.002578,77.11203 c -0.650261,-2.00238 -2.388944,-3.0023 -4.130307,-3.00217 z"/>
  <path d="m 40.872271,74.10986 c -1.741342,1.3e-4 -3.483752,1.00034 -4.134012,3.00217 l -25.2828,77.81892 -12.75829,39.2657 c -1.16362,3.58104 0.11153,7.50215 3.15804,9.71531 l 110.416021,80.22363 110.41603,-80.22363 c 3.04654,-2.21316 4.32164,-6.13427 3.15803,-9.71531 L 213.087,154.93095 187.8042,77.11203 c -1.3005,-4.00367 -6.96381,-4.00475 -8.26431,0 l -25.28653,77.81892 H 70.2891 L 45.002578,77.11203 c -0.650261,-2.00238 -2.388944,-3.0023 -4.130307,-3.00217 z" style="opacity:0.1;fill:#060505;fill-rule:evenodd"/>
  <path id="Fill-4" d="m 112.27112,282.1355 v 0 L 153.51576,155.19829 H 71.026487 Z" style="fill:#f22c42;fill-rule:evenodd"/>
  <path id="Fill-8" d="M 112.27112,282.13527 71.026487,155.19806 H 13.223149 Z" style="fill:#fb7c38;fill-rule:evenodd"/>
  <path id="Fill-12" d="m 13.223256,155.19838 v 0 L 0.68975369,193.77344 c -1.14319329,3.51818 0.1088826,7.37258 3.10188841,9.54689 L 112.27123,282.13559 Z" style="fill:#ffda64;fill-rule:evenodd"/>
  <path id="Fill-16" d="M 13.223256,155.19849 H 71.026593 L 46.184811,78.745409 c -1.277688,-3.934467 -6.843153,-3.933403 -8.120839,0 z" style="fill:#f22c42;fill-rule:evenodd"/>
  <path id="Fill-18" d="M 112.27112,282.13527 153.51576,155.19806 H 211.3191 Z" style="fill:#fb7c38;fill-rule:evenodd"/>
  <path id="Fill-20" d="m 211.3191,155.19838 v 0 l 12.53351,38.57506 c 1.14318,3.51818 -0.10883,7.37258 -3.1019,9.54689 l -108.47959,78.81526 z" style="fill:#ffda64;fill-rule:evenodd"/>
  <path id="Fill-22" d="m 211.3191,155.19849 h -57.80334 l 24.84178,-76.453081 c 1.27769,-3.934467 6.84316,-3.933403 8.12084,0 z" style="fill:#f22c42;fill-rule:evenodd"/>
  <path style="opacity:0.2;fill-rule:evenodd" d="m 0.33557,195.41262 c -0.35689,3.02383 0.92233,6.06631 3.45508,7.90625 l 108.48047,78.8164 108.47852,-78.8164 c 2.53278,-1.83994 3.81197,-4.88242 3.45507,-7.90625 -0.27427,2.31276 -1.48392,4.47431 -3.45507,5.90625 L 112.27112,280.13527 3.79065,201.31887 c -1.97113,-1.43194 -3.18079,-3.59349 -3.45508,-5.90625 z"/>
  <path style="opacity:0.3;fill:#e9e9e9;fill-rule:evenodd" d="m 42.126203,75.7942 c -1.71079,1.3e-4 -3.42365,0.98446 -4.0625,2.95117 l -24.83789,76.45312 -12.5351604,38.57617 c -0.39042,1.20153 -0.49588,2.44131 -0.35351,3.64063 0.0649,-0.54956 0.1777,-1.09956 0.35351,-1.64063 L 13.225813,157.19849 38.063703,80.74537 c 0.63885,-1.96671 2.35171,-2.95104 4.0625,-2.95117 1.71082,-1.3e-4 3.41779,0.98392 4.05664,2.95117 l 24.84375,76.45312 h 82.490237 l 24.84375,-76.45312 c 1.27769,-3.93449 6.84145,-3.93342 8.11914,0 l 24.83985,76.45312 12.5332,38.57617 c 0.17539,0.53977 0.28855,1.08849 0.35352,1.63672 0.14166,-1.19812 0.0365,-2.43648 -0.35352,-3.63672 l -12.5332,-38.57617 -24.83985,-76.45312 c -1.27769,-3.93342 -6.84145,-3.93449 -8.11914,0 l -24.84375,76.45312 H 71.026593 L 46.182843,78.74537 c -0.63885,-1.96725 -2.34582,-2.9513 -4.05664,-2.95117 z"/>
 </g>
</svg>
